hornpipes/bobbycaseys.htmlhornpipes/bobbycaseys.htmlhornpipes/bobbycaseys.htmlhornpipes/bobbycaseys.htmlhornpipes/bobbycaseys.htmlhornpipes/bobbycaseys.htmlhornpipes/bobbycaseys.htmlhornpipes/bobbycaseys.htmlhornpipes/bobbycaseys.htmlMatt Seattle
hornpipes/bobbycaseys.htmlFrom <I>Nomos: I Won't Be Afraid Any More</I>
hornpipes/bobbycaseys.htmlhornpipes/bobbycaseys.html<PRE>T:Cosair, The
T:Cosair, The
M:4/4
L:1/8
C:Matt Seattle
R:hornpipe
D:Nomos: I Won't Be Afriad Any More
Z:Devin McCabe
K:DMin
AddA cAGE|FEDF EA,A,G,|A,DFD EGcB|Adfa gecA|
!dedA cAGE|FEDF EA,A,G,|A,DFD EGcB|1AGEF D3B:|2AGEF DEFG|
!:A~F3 G~E3|A~d3 eccB|Adfa gbeg|fadf eccB|
!A~F3 G~E3|A~d3 eccB|Adfa gecB|1AGEF DEFG:|2AGEF D3B||

%  ABC2Win Version 2.1 4/22/2001
hornpipes/bobbycaseys.htmlhornpipes/bobbycaseys.htmlhornpipes/bobbycaseys.htmlhornpipes/bobbycaseys.htmlhornpipes/bobbycaseys.htmlhornpipes/bobbycaseys.htmlhornpipes/bobbycaseys.html